packages/ui-icons/svg/Solid/highlighter.svg

<svg viewBox="0 0 1920 1920" version="1.1" xmlns="http://www.w3.org/2000/svg">
    <path d="M110,1920 L1809.93229,1920 L1809.93229,1806.67118 L110,1806.67118 L110,1920 Z M477.548028,1391.20773 L621.022313,1486.85725 L560.731381,1580.01354 L326.820698,1580.01354 L477.548028,1391.20773 Z M312.654595,1693.34236 L622.495588,1693.34236 L745.684015,1502.60996 L805.408302,1413.19352 C821.840981,1388.60117 850.513173,1375.56835 878.052076,1381.00813 C954.662358,1395.28757 1032.2926,1358.90901 1070.71107,1292.61166 L1645.96816,389.040977 C1686.31322,319.343753 1666.594,230.38063 1600.97662,186.409048 L1358.22628,24.5754933 C1292.49557,-18.9427734 1202.85247,-3.19006745 1154.68772,60.1607427 L488.540923,901.627228 C440.82949,964.411394 437.202968,1050.31464 479.587946,1115.13872 C494.887337,1138.82445 494.207364,1170.1032 477.888014,1194.80888 L419.637001,1282.07207 L229.471242,1520.51591 C203.632271,1552.81462 198.759131,1595.9929 216.665085,1633.16476 C234.571038,1670.22328 271.402905,1693.34236 312.654595,1693.34236 L312.654595,1693.34236 Z" stroke="none" stroke-width="1" fill-rule="evenodd"/>
</svg>

<svg viewBox="0 0 1920 1920" xmlns="http://www.w3.org/2000/svg">
    <path d="M110 1920h1699.932v-113.329H110V1920Zm367.548-528.792 143.474 95.65-60.29 93.156H326.82l150.727-188.806Zm-164.893 302.134h309.84l123.189-190.732 59.724-89.416c16.433-24.593 45.105-37.626 72.644-32.186 76.61 14.28 154.24-22.099 192.66-88.396l575.256-903.571c40.345-69.697 20.626-158.66-44.991-202.632l-242.75-161.834c-65.731-43.518-155.375-27.765-203.54 35.586L488.542 901.627c-47.712 62.784-51.338 148.688-8.953 213.512 15.3 23.685 14.62 54.964-1.7 79.67l-58.251 87.263-190.166 238.444c-25.839 32.299-30.712 75.477-12.806 112.649 17.906 37.058 54.738 60.177 95.99 60.177Z" fill-rule="evenodd"/>
</svg>
